X:1
T:The Terror Time
M:6/8
L:1/8
Q:80
C:arr. Kent Hiestand
S:Slow Air
K:HP
|: A | \
{GdG}c2d{gef}e3 | \
{A}e2f{gef}e3/2d/2c | \
{Gdc}d3-d2e |
{gAGAG}A3-A2{d}A | \
{GdG}c2d{gef}e3- | \
e2a{f}g3- |
g2a/2g/2{fg}f3- | \
f2d{g}d3/2e/2f | \
{gef}e3-e3 |
{g}e2d{g}c/2{d}A-A3/2- | \
A3{g}A3/2B/2c | \
{Gdc}d3/2cB{g}c3- |
c3{g}e2d | \
{g}c/2{d}A-A3/2-A3 | \
{g}G3-G2{d}B |
{G}A3-A2 :|
